X:1
T:Out of the East
T:Out of the East
T:Song
T:Music by Joe Rosey
T:  Lyric by Jean Havez
T:Copyright 1918 by Jerome H. Remick &amp; Co
T:Copyright 1918 by Jerome H. Remick &amp; Co
T:Copyright 1918 by Jerome H. Remick &amp; Co
T:Copyright 1918 by Jerome H. Remick &amp; Co
T:Copyright 1918 by Jerome H. Remick &amp; Co
C:Joe Rosey
Z:Jean Havez
Z:Copyright 1918 by Jerome H. Remick & Co
%%score 1 { ( 2 5 ) | ( 3 4 ) }
L:1/8
Q:1/4=180
M:2/2
K:C
V:1 treble nm="Voice"
V:2 treble nm="Piano"
V:5 treble 
V:3 bass 
V:4 bass 
V:1
"^Moderato" z8 | z8 | z8 | z8 | z8 | z8 |: z8 | z8 :|"^VOICE" E4 A4- | A2 AB A2 E2 | D8- | %11
w: ||||||||Pale moon|_ in the east- ern|sky|
w: ||||||||Far far|_ from the des- ert|sands|
 D2 z2 z4 | E4 A4- | A2 A^G A2 ^A2 | B8- | B2 z2 z4 | E4 A4- | A2 AB A2 E2 | D8- | D2 z2 z4 | %20
w: _|Look down|_ where the Ar- abs|lie|_|Smile down|_ on the cav- al-|cade|_|
w: _|Yon- der|_ in the vine- yard|lands|_|There dear|_ is the place we'll|go|_|
 E4 A4- | A2 AB c2 B2 | A8- | A2 z2 z4 | E4 A4- | A2 AB A2 E2 | D8- | D2 z2 z4 | E4 A4- | %29
w: Wake not|_ lit- tle dark- eyed|maid|_|Dream- ing|_ of a Prince so|bold|_|High up|
w: There dear|_ where the breez- es|blow|_|Palm trees|_ wave a wel- come|dear|_|Sway- ing|
 A2 A^G A2 ^A2 | B8- | B2 z2 z4 | E4 A4- | A2 AB A2 E2 | D8- | D2 z2 z4 | E4 A4- | A2 AB c2 B2 | %38
w: _ on a throne of|gold|_|Sing- ing|_ in a vi- sion|rare|_|Plead- ing|_ to his dream love|
w: _ in the sun- light|clear|_|Blue skies|_ with an o- pal|glow|_|Call- ing|_ bid us gen- tly|
 A8- | A2 z2 z4 |: c6 e2 | B2 c2 ^G2 A2 | =G6 A2 | F2 G2 E2 F2 | D6 G2 | F2 G2 D2 E2 | C8 | G8 | %48
w: fair|_|O- ri-|en- tal maid- en|Be my|je- wl la- den|Princ- ess|all ar- ray'd in|glo-|ry|
w: go|_|||||||||
 c6 e2 | B2 c2 A2 B2 | ^G6 A2 | ^F2 ^G2 E2 G2 | B6 A2 | ^G2 A2 ^F2 G2 | E8 | =G8 | c6 e2 | %57
w: Dream of|love's sweet long- ing|Ten- der|fan- cies throng- ing|Told in|roy- al song and|sto-|ry|See the|
w: |||||||||
 B2 c2 ^G2 A2 | =G6 A2 | F2 G2 E2 F2 | D6 G2 | F2 G2 D2 E2 | C8 | G8 | A6 =B2 | d2 c2 A2 B2 | %66
w: Sphinx be- guil- ing|Pyr- a-|mids are smil- ing|To my|sweet heart while in|slum-|ber|All the|sen- ti- men- tal|
w: |||||||||
 G6 ^G2 | B2 A2 F2 G2 | D6 E2 |1 G2 F2 D2 E2 | C2 z2 z4 | z8 :|2 G2 F2 d2 e2 | c8- | %74
w: All the|O- ri- en- tal|Dreams are|born Out of the|East||born Out of the|East|
w: ||||||||
"_D.C.""_D.C." c2 z2 z4 |] %75
w: _|
w: |
V:2
 z8 | z8 | z2 .[_Bdg].[Bdg] .[Adf]2 .[GBe].[GBe] | .[FAd]2 .[DF_B].[DFB] .[DFA]2 z2 | %4
 [CEA]2 !^!E!^!E !^!E2 !^!E2 | [B,DE^G]2 !^!E!^!E !^!E2 !^!E2 |:!mf!!>(! z8 | z8!>)! :| %8
 [CE]4 [CEA]4- | [CEA]2 [CEA]B [CEA]2 [CE]2 | !^!D8- | D8 | [CE]4 [CEA]4- | %13
 [CEA]2 [CEA]^G [CEA]2 [E^F^A]2 | !^!B8- | [=D^GB]8 | [CE]4 [CEA]4- | [CEA]2 [CEA]B [CEA]2 [CE]2 | %18
 !^!D8- | D8 | [CE]4 [CEA]4- | [CEA]2 [CA][DB] [E^Gc]2 [DGB]2 | %22
 [CEA]2 .[Adf].[Adf] .[Ace]2 .[FAd].[FAd] | .[EAc]2 .[DFB].[DFB] .[CEA]2 .[B,DF]2 | [CE]4 [CEA]4- | %25
 [CEA]2 [CEA]B [CEA]2 [CE]2 | !^!D8- | D8 | [CE]4 [CEA]4- | [CEA]2 [CEA]^G [CEA]2 [E^F^A]2 | %30
 !^!B8- | [=D^GB]8 | [CE]4 [CEA]4- | [CEA]2 [CEA]B [CEA]2 [CE]2 | !^!D8- | D8 | [CE]4 [CEA]4- | %37
 [CEA]2 [CA][DB] [E^Gc]2 [DGB]2 | [CEA]8- | [CEA]2 z2 [B,DFG]4 |:!p!!f! [Cc]6 [Ee]2 | %41
 [B,EGB]2 [CEGc]2 [C^F^G]2 [CFA]2 | =G6 A2 | [A,B,F]2 [B,G]2 [G,B,E]2 [A,B,F]2 | D6 G2 | %45
 [A,F]2 [B,G]2 [F,B,D]2 [G,B,E]2 | !^!C8 | !^!G8 | [Cc]6 [Ee]2 | %49
 [B,EGB]2 [CEGc]2 [B,^DA]2 [B,DB]2 | ^G6 A2 | [B,^F]2 [B,^G]2 [B,E]2 [B,G]2 | [B,B]6 [B,=DA]2 | %53
 [B,^D^G]2 [B,DA]2 [A,D^F]2 [B,DG]2 | !^!E8 | !^!=G8 | [Cc]6 [Ee]2 | %57
 [B,EGB]2 [CEGc]2 [C^F^G]2 [CFA]2 | =G6 A2 | [A,B,F]2 [B,G]2 [G,B,E]2 [A,B,F]2 | D6 G2 | %61
 [A,F]2 [B,G]2 [F,B,D]2 [G,B,E]2 | !^!C8 | !^!G8 | A6 =B2 | [DFd]2 [DFc]2 [DFA]2 [C^DB]2 | G6 ^G2 | %67
 [B,E=GB]2 [A,EGA]2 [A,DF]2 [DG]2 | D6 E2 |1 [B,G]2 [A,F]2 [B,D]2 [B,E]2 | %70
 C2 [DFB]!<(![DFB] [DF_B]2 [CEA]2!<)! |!ff! [C_E_A][CEA] [CEA]2 [B,DG]2 [B,FG]2 :|2 %72
 [B,G]2 [A,F]2 [Fd]2 [Ge]2 | [EGc]8- | [EGc]2 z2"_D.C.""_D.C." !^![CEGc]2 z2 |] %75
V:3
 !^!E,4 !^!A,4- | A,2 !^!A,!^!B, !^!A,2 !^!E,2 | !^![D,,D,]8- | [D,,D,]6 z2 | [E,,E,]2 z2 z4 | %5
 [E,,E,]2 z2 z4 |: !^![A,,E,]2 !^![A,,E,]2 !^![A,,E,]2 !^![A,,E,]2 | %7
 !^![A,,E,]2 !^![A,,E,]2 !^![A,,E,]2 !^![A,,E,]2 :| %8
 !^![A,,E,]2 !^![A,,E,]2 !^![A,,E,]2 !^![A,,E,]2 | %9
 !^![A,,E,]2 !^![A,,E,]2 !^![A,,E,]2 !^![A,,E,]2 | !^![D,,D,]2 .D,,.E,, .F,,2 .F,,.G,, | %11
 .A,,2 .A,,.G,, .F,,.E,, .D,,2 | !^![A,,E,]2 !^![A,,E,]2 !^![A,,E,]2 !^![A,,E,]2 | %13
 !^![A,,E,]2 !^![A,,E,]2 !^![A,,E,]2 !^![A,,E,]2 | [B,,,B,,]2 .B,,.^C, .^D,2 .B,,2 | %15
 E,2 .E,.=F, .E,.=D,.=C,.B,, | !^![A,,E,]2 !^![A,,E,]2 !^![A,,E,]2 !^![A,,E,]2 | %17
 !^![A,,E,]2 !^![A,,E,]2 !^![A,,E,]2 !^![A,,E,]2 | !^![D,,D,]2 .D,,.E,, .F,,2 .F,,.G,, | %19
 .A,,2 .A,,.G,, .F,,.E,, .D,,2 | !^![A,,E,]2 !^![A,,E,]2 !^![A,,E,]2 !^![A,,E,]2 | %21
 !^![A,,E,]2 !^![A,,E,]2 E,,2 E,2 | A,,8- | A,,2 D,2 E,4 | %24
 !^![A,,E,]2 !^![A,,E,]2 !^![A,,E,]2 !^![A,,E,]2 | %25
 !^![A,,E,]2 !^![A,,E,]2 !^![A,,E,]2 !^![A,,E,]2 | [D,,D,]2 .D,,.E,, .F,,2 .F,,.G,, | %27
 .A,,2 .A,,.G,, .F,,.E,, .D,,2 | !^![A,,E,]2 !^![A,,E,]2 !^![A,,E,]2 !^![A,,E,]2 | %29
 !^![A,,E,]2 !^![A,,E,]2 !^![A,,E,]2 !^![A,,E,]2 | [B,,,B,,]2 .B,,.^C, .^D,2 .B,,2 | %31
 E,2 .E,.=F, .E,.=D,.=C,.B,, | !^![A,,E,]2 !^![A,,E,]2 !^![A,,E,]2 !^![A,,E,]2 | %33
 !^![A,,E,]2 !^![A,,E,]2 !^![A,,E,]2 !^![A,,E,]2 | !^![D,,D,]2 .D,,.E,, .F,,2 .F,,.G,, | %35
 .A,,2 .A,,.G,, .F,,.E,, .D,,2 | !^![A,,E,]2 !^![A,,E,]2 !^![A,,E,]2 !^![A,,E,]2 | %37
 !^![A,,E,]2 !^![A,,E,]2 E,,2 E,2 | !^!A,,2 !^!A,,!^!B,, !^!C,2 !^!B,,2 | !^!A,,2 z2 [G,,G,]4 |: %40
 [C,,C,]2 z2 G,,2 z2 | [E,,E,]4 [_E,,_E,]4 | [D,,D,]2 z2 G,,2 z2 | [D,,D,]2 z2 G,,2 z2 | %44
 [B,,,B,,]2 z2 G,,2 z2 | [D,,D,]2 z2 G,,2 z2 | [C,,C,]2 z2 G,,2 z2 | %47
 [D,,D,]2 !^!G,!^!A, !^!G,!^!F,!^!E,!^!D, | [C,,C,]2 z2 G,,2 z2 | [E,,E,]2 z2 [^F,,^F,]2 B,,2 | %50
 [E,,E,]2 z2 [B,,,B,,]2 [^C,,^C,]2 | [^D,,^D,]2 [E,,E,]2 [^G,,^G,]2 [E,,E,]2 | %52
 [^D,,^D,]2 z2 [B,,,B,,]2 z2 | [B,,,B,,]2 z2 [B,,,B,,]2 z2 | %54
 [E,,E,]2 !^!B,,!^!A,, !^!^G,,2 !^!E,,2 | [D,,D,]2 !^!=F,!^!E, !^!D,2 !^!G,,2 | %56
 [C,,C,]2 z2 G,,2 z2 | [E,,E,]4 [_E,,_E,]4 | [D,,D,]2 z2 G,,2 z2 | [D,,D,]2 z2 G,,2 z2 | %60
 [B,,,B,,]2 z2 G,,2 z2 | [D,,D,]2 z2 G,,2 z2 | [C,,C,]2 z2 G,,2 z2 | %63
 [E,,E,]2 [C,,C,]2 [D,,D,]2 [E,,E,]2 | [F,,F,]2 z2 C,2 [G,,G,]2 | %65
 [B,,B,]2 [A,,A,]2 [F,,F,]2 [^F,,^F,]2 | [G,,G,]2 z2 [E,,E,]2 [D,,D,]2 | [^C,,^C,]4 [D,,D,]4 | %68
 B,,4 G,,4 |1 D,4 G,,4 | [C,E,]2 [G,,G,]2 [^G,,^G,]2 [A,,A,]2 | %71
 [^F,,^F,]2 [F,,F,]2 [G,,G,][=F,,=F,][=E,,=E,][D,,D,] :|2 D,4{/G,,} [G,B,]4 | %73
 [C,C]3 [G,,G,] [A,,A,]2 [G,,G,]2 | [C,,C,]2 z2 !^![C,,C,]2 z2 |] %75
V:4
 E,,4 A,,4- | A,,2 A,,B,, A,,2 E,,2 | x8 | x8 | x8 | x8 |: x8 | x8 :| x8 | x8 | x8 | x8 | x8 | x8 | %14
 x8 | x8 | x8 | x8 | x8 | x8 | x8 | x8 | x8 | x8 | x8 | x8 | x8 | x8 | x8 | x8 | x8 | x8 | x8 | %33
 x8 | x8 | x8 | x8 | x8 | x8 | x8 |: x8 | x8 | x8 | x8 | x8 | x8 | %46
 z2 [E,G,][E,G,] [E,G,]2 [E,G,]2 | x8 | x8 | x8 | x8 | x8 | x8 | x8 | x8 | x8 | x8 | x8 | x8 | x8 | %60
 x8 | x8 | z2 [E,G,][E,G,] [E,G,]2 [E,G,]2 | x8 | x8 | x8 | x8 | x8 | %68
 z2 [F,G,][F,G,] [F,G,]2 [G,B,]2 |1 x4 F,2 G,2 | x8 | x8 :|2 x8 | x8 | x8 |] %75
V:5
 x8 | x8 | x8 | x8 | x8 | x8 |: x8 | x8 :| x8 | x8 | [F,A,]2 [F,A,]2 z2 [F,A,]2 | %11
 z2 [F,A,]2 z2 [F,A,]2 | x8 | x8 | [^D^F]2 [DF]2 z2 [D=A]2 | x8 | x8 | x8 | %18
 [F,A,]2 [F,A,]2 z2 [F,A,]2 | z2 [F,A,]2 z2 [F,A,]2 | x8 | x8 | x8 | x8 | x8 | x8 | %26
 [F,A,]2 [F,A,]2 z2 [F,A,]2 | z2 [F,A,]2 z2 [F,A,]2 | x8 | x8 | [^D^F]2 [DF]2 z2 [D=A]2 | x8 | x8 | %33
 x8 | [F,A,]2 [F,A,]2 z2 [F,A,]2 | z2 [F,A,]2 z2 [F,A,]2 | x8 | x8 | x8 | x8 |: %40
 z2 [EG][EG]"_-" [EG]2 [Gc]2 | x8 | z2 [B,=F][B,F] [B,F]2 [CF]2 | x8 | %44
 z2 [F,B,][F,B,] [F,B,]2 B,2 | x8 | x8 | z2 [B,F][B,F] [B,F]2 [B,F]2 | z2 [EG][EG] [EG]2 [Gc]2 | %49
 x8 | z2 [B,E][B,E] [B,E]2 [B,E]2 | x8 | z2 [^D^F][DF] [DF]2 x2 | x8 | %54
 [^G,B,]2 [G,B,]2 z2 [G,B,]2 | [B,=F]2 [B,F]2 z2 [B,F]2 | z2 [EG][EG] [EG]2 [Gc]2 | x8 | %58
 z2 [B,=F][B,F] [B,F]2 [CF]2 | x8 | z2 [F,B,][F,B,] [F,B,]2 B,2 | x8 | x8 | %63
 [_B,C]2 [B,E]2 [B,D]2 [B,C]2 | z2 [CF][CF] [CF]2 [=B,F]2 | x8 | z2 [CE][CE] [CE]2 [B,E]2 | x8 | %68
 x8 |1 x8 | x8 | x8 :|2 x8 | x8 | x8 |] %75

